static/images/gray-nav-logo-display.svg

<svg height="1024" viewBox="0 0 2048 1024" width="2048" xmlns="http://www.w3.org/2000/svg"><g fill="none" fill-rule="evenodd"><path d="m0 0h2048v1024h-2048z" fill="#f0f0f0"/><g transform="translate(724 212)"><rect height="599.127987" rx="299.563993" stroke="#e1e1e1" stroke-width="29.254296" width="599.127987"/><path d="m393.835963 169.674918c7.60246 0 13.771314 6.451231 13.89393 14.031427l.001861.230043v101.658679c0 .161567.130976.292543.292543.292543h21.428772c7.755216 0 14.042062 6.286845 14.042062 14.042062s-6.286846 14.042062-14.042062 14.042062h-21.428772c-.161567 0-.292543.130976-.292543.292543v100.781051c0 7.60246-5.376026 13.412912-12.934718 13.528361l-.229716.001751h-1.462714c-6.119405 0-10.467107-3.543405-14.787126-8.537392l-.205701-.238897-82.667294-105.715081c-.055445-.070903-.140442-.112336-.230449-.112336h-75.514271c-.161567 0-.292543.130976-.292543.292543v100.781051c0 7.60246-6.092829 14.129715-14.020675 14.261469h-.240795c-7.60246 0-13.771313-6.45123-13.89393-14.031426l-.00186-.230043v-100.781051c0-.161567-.130976-.292543-.292543-.292543h-21.282501c-7.755217 0-14.042062-6.286845-14.042062-14.042062s6.286845-14.042062 14.042062-14.042062h21.282501c.161567 0 .292543-.130976.292543-.292543v-100.927322c0-7.60246 6.45123-14.129715 14.031426-14.2595l.230043-.001969h4.022466c6.379687 0 10.354722 3.091694 14.255769 7.943276l.371379.467334 83.869644 106.958695c.055455.070721.140338.112029.230209.112029h71.021053c.161567 0 .292543-.130976.292543-.292543v-101.658679c0-7.602461 6.092828-14.129716 14.020674-14.26147zm-14.554012 144.296816h-48.54022c-.161567 0-.292543.130976-.292543.292543 0 .06545.021948.12901.062334.180514l48.54022 61.903287c.099695.127141.283581.14939.410722.049695.070722-.055455.11203-.140338.11203-.230209v-61.903287c0-.161567-.130976-.292543-.292543-.292543zm-159.874729-96.275254v67.898587c0 .161567.130976.292543.292543.292543h53.095544c.161567 0 .292543-.130976.292543-.292543 0-.065317-.021859-.128755-.062094-.180207l-53.095544-67.898587c-.099526-.127273-.283383-.149768-.410657-.050242-.070902.055445-.112335.140442-.112335.230449z" fill="#d7d7d7" fill-rule="nonzero"/></g></g></svg>

<?xml version="1.0" encoding="UTF-8"?>
<svg width="2048px" height="1024px" viewBox="0 0 2048 1024" version="1.1" xmlns="http://www.w3.org/2000/svg" xmlns:xlink="http://www.w3.org/1999/xlink">
    <!-- Generator: Sketch 63.1 (92452) - https://sketch.com -->
    <title>news-image-placeholder</title>
    <desc>Created with Sketch.</desc>
    <g id="news-image-placeholder" stroke="none" stroke-width="1" fill="none" fill-rule="evenodd">
        <rect fill="#F0F0F0" x="0" y="0" width="2048" height="1024"></rect>
        <g id="N" transform="translate(724.000000, 212.000000)">
            <rect id="Background" stroke="#E1E1E1" stroke-width="29.2542962" x="0" y="0" width="599.127987" height="599.127987" rx="299.563993"></rect>
            <path d="M393.835963,169.674918 C401.438423,169.674918 407.607277,176.126149 407.729893,183.706345 L407.731754,183.936388 L407.731754,285.595067 C407.731754,285.756634 407.86273,285.88761 408.024297,285.88761 L429.453069,285.88761 L429.453069,285.88761 C437.208285,285.88761 443.495131,292.174455 443.495131,299.929672 C443.495131,307.684889 437.208285,313.971734 429.453069,313.971734 L408.024297,313.971734 C407.86273,313.971734 407.731754,314.10271 407.731754,314.264277 L407.731754,415.045328 L407.731754,415.045328 C407.731754,422.647788 402.355728,428.45824 394.797036,428.573689 L394.56732,428.57544 L393.104606,428.57544 C386.985201,428.57544 382.637499,425.032035 378.31748,420.038048 L378.111779,419.799151 L295.444485,314.08407 C295.38904,314.013167 295.304043,313.971734 295.214036,313.971734 L219.699765,313.971734 C219.538198,313.971734 219.407222,314.10271 219.407222,314.264277 L219.407222,415.045328 L219.407222,415.045328 C219.407222,422.647788 213.314393,429.175043 205.386547,429.306797 L205.145752,429.306797 C197.543292,429.306797 191.374439,422.855567 191.251822,415.275371 L191.249962,415.045328 L191.249962,314.264277 C191.249962,314.10271 191.118986,313.971734 190.957419,313.971734 L169.674918,313.971734 L169.674918,313.971734 C161.919701,313.971734 155.632856,307.684889 155.632856,299.929672 C155.632856,292.174455 161.919701,285.88761 169.674918,285.88761 L190.957419,285.88761 C191.118986,285.88761 191.249962,285.756634 191.249962,285.595067 L191.249962,184.667745 L191.249962,184.667745 C191.249962,177.065285 197.701192,170.53803 205.281388,170.408245 L205.511431,170.406276 L209.533897,170.406276 C215.913584,170.406276 219.888619,173.49797 223.789666,178.349552 L224.161045,178.816886 L308.030689,285.775581 C308.086144,285.846302 308.171027,285.88761 308.260898,285.88761 L379.281951,285.88761 C379.443518,285.88761 379.574494,285.756634 379.574494,285.595067 L379.574494,183.936388 L379.574494,183.936388 C379.574494,176.333927 385.667322,169.806672 393.595168,169.674918 L393.835963,169.674918 Z M379.281951,313.971734 L330.741731,313.971734 C330.580164,313.971734 330.449188,314.10271 330.449188,314.264277 C330.449188,314.329727 330.471136,314.393287 330.511522,314.444791 L379.051742,376.348078 C379.151437,376.475219 379.335323,376.497468 379.462464,376.397773 C379.533186,376.342318 379.574494,376.257435 379.574494,376.167564 L379.574494,314.264277 C379.574494,314.10271 379.443518,313.971734 379.281951,313.971734 Z M219.407222,217.69648 L219.407222,285.595067 C219.407222,285.756634 219.538198,285.88761 219.699765,285.88761 L272.795309,285.88761 C272.956876,285.88761 273.087852,285.756634 273.087852,285.595067 C273.087852,285.52975 273.065993,285.466312 273.025758,285.41486 L219.930214,217.516273 C219.830688,217.389 219.646831,217.366505 219.519557,217.466031 C219.448655,217.521476 219.407222,217.606473 219.407222,217.69648 Z" id="Shape" fill="#D7D7D7" fill-rule="nonzero"></path>
        </g>
    </g>
</svg>
